X:285
T:Luachrach\'an, The
T:Junior Crehan's
T:An Lurad\'an
T:An Luathrad\'an
R:jig
C:Martin "Junior" Crehan (1908-1998)
H:Also played in G, #419
Z:id:hn-jig-285
M:6/8
K:D
d|BAF AFE|EFD EDB,|A,B,D ~E3|FED E2d|
BAF AFE|EFD EDB,|A,B,D ~E3|FDC D2:|
|:E|DFA ~d3|ede fdB|def edB|ABd e2f|
edB BAF|DFD EDB,|A,B,D ~E3|FDC D2:|

